X: 6
T: The High Road To Linton
R: reel
M: 4/4
L: 1/8
K: Amaj
e |: ceef a2 ae|f2 fe a2 ae|ceef a2 ae|faec B2 A2 :||: cee=g fddf|ecce fBBf|cee=g fddf| ecac B2 A2 :||: a2 a2 ef a2|efae faef|a2 a2 efae faec B2 A2 :||: c2 ec defd|c2 ec BcdB|c2 ec defg|afec B2 A2 :|


Tune 1118	Setting 29046

